wp-content/themes/blackfoot/assets/img/icon-water-report.svg

<?xml version="1.0" encoding="UTF-8" standalone="no"?>
<svg width="20px" height="20px" viewBox="0 0 20 20" version="1.1" xmlns="http://www.w3.org/2000/svg" xmlns:xlink="http://www.w3.org/1999/xlink" xmlns:sketch="http://www.bohemiancoding.com/sketch/ns">
    <!-- Generator: Sketch 3.3.1 (12002) - http://www.bohemiancoding.com/sketch -->
    <title>REPORT BTN</title>
    <desc>Created with Sketch.</desc>
    <defs></defs>
    <g id="Water" stroke="none" stroke-width="1" fill="none" fill-rule="evenodd" sketch:type="MSPage">
        <g sketch:type="MSArtboardGroup" transform="translate(-782.000000, -501.000000)" id="HERO">
            <g sketch:type="MSLayerGroup" transform="translate(-1707.000000, -11.000000)">
                <g id="VIEW-REPORT" transform="translate(2489.000000, 512.000000)" sketch:type="MSShapeGroup">
                    <g id="REPORT-BTN">
                        <circle id="Oval-1" fill="#46A0CE" cx="10" cy="10" r="10"></circle>
                        <path d="M13.5,6.24992 C13.5,5.00752 12.49248,4 11.25008,4 C10.00752,4 9,5.00752 9,6.24992 C9,7.22944 9.62688,8.06 10.5,8.36944 L10.5,13 C10.5,13.82816 9.82816,14.5 9,14.5 C8.17136,14.5 7.5,13.82816 7.5,13 L9,13 L6,10 L6,13 C6,14.6568 7.3432,16 9,16 C10.65696,16 12,14.6568 12,13 L12,8.36944 C12.87312,8.06 13.5,7.22944 13.5,6.24992 L13.5,6.24992 Z M11.700128,7.9 C11.038112,7.9 10.5,7.362912 10.5,6.699872 C10.5,6.037088 11.038112,5.5 11.700128,5.5 C12.362144,5.5 12.9,6.037088 12.9,6.699872 C12.9,7.362912 12.362144,7.9 11.700128,7.9 L11.700128,7.9 Z" id="Imported-Layers" fill="#FFFFFF"></path>
                    </g>
                </g>
            </g>
        </g>
    </g>
</svg>

<svg xmlns="http://www.w3.org/2000/svg" width="20" height="20"><title>REPORT BTN</title><desc>Created with Sketch.</desc><g fill="none"><g><g><g transform="translate(0 0)"><circle cx="10" cy="10" r="10" fill="#46A0CE"/><path fill="#fff" d="M13.5 6.25C13.5 5 12.5 4 11.25 4 10 4 9 5 9 6.25c0 .98.63 1.8 1.5 2.12V13c0 .83-.67 1.5-1.5 1.5s-1.5-.67-1.5-1.5H9l-3-3v3c0 1.66 1.34 3 3 3s3-1.34 3-3V8.37c.87-.3 1.5-1.14 1.5-2.12zM11.7 7.9c-.66 0-1.2-.54-1.2-1.2 0-.66.54-1.2 1.2-1.2.66 0 1.2.54 1.2 1.2 0 .66-.54 1.2-1.2 1.2z"/></g></g></g></g></svg>
